dist/images/icons/rub.svg

<svg width="31" height="31" viewBox="0 0 31 31" fill="none" xmlns="http://www.w3.org/2000/svg">
<g filter="url(#filter0_ii_378_80)">
<path d="M31 15.5C31 6.93959 24.0604 0 15.5 0C6.93959 0 0 6.93959 0 15.5C0 24.0604 6.93959 31 15.5 31C24.0604 31 31 24.0604 31 15.5Z" fill="#223840"/>
<path d="M31 15.5C31 6.93959 24.0604 0 15.5 0C6.93959 0 0 6.93959 0 15.5C0 24.0604 6.93959 31 15.5 31C24.0604 31 31 24.0604 31 15.5Z" fill="white" fill-opacity="0.01"/>
<path d="M30.4522 15.5002C30.4522 7.24222 23.7578 0.547852 15.4999 0.547852C7.24198 0.547852 0.547607 7.24222 0.547607 15.5002C0.547607 23.7581 7.24198 30.4525 15.4999 30.4525C23.7578 30.4525 30.4522 23.7581 30.4522 15.5002Z" stroke="url(#paint0_linear_378_80)" stroke-width="1.09539"/>
</g>
<path d="M12.75 9C12.243 9 11.8333 9.41496 11.8333 9.92857V15.5H10.9167C10.4096 15.5 10 15.915 10 16.4286C10 16.9422 10.4096 17.3571 10.9167 17.3571H11.8333V18.2857H10.9167C10.4096 18.2857 10 18.7007 10 19.2143C10 19.7279 10.4096 20.1429 10.9167 20.1429H11.8333V21.0714C11.8333 21.585 12.243 22 12.75 22C13.257 22 13.6667 21.585 13.6667 21.0714V20.1429H18.25C18.757 20.1429 19.1667 19.7279 19.1667 19.2143C19.1667 18.7007 18.757 18.2857 18.25 18.2857H13.6667V17.3571H16.875C19.1523 17.3571 21 15.4855 21 13.1786C21 10.8717 19.1523 9 16.875 9H12.75ZM16.875 15.5H13.6667V10.8571H16.875C18.1411 10.8571 19.1667 11.896 19.1667 13.1786C19.1667 14.4612 18.1411 15.5 16.875 15.5Z" fill="#BAE9F1"/>
<defs>
<filter id="filter0_ii_378_80" x="0" y="0" width="31" height="35" filterUnits="userSpaceOnUse" color-interpolation-filters="sRGB">
<feFlood flood-opacity="0" result="BackgroundImageFix"/>
<feBlend mode="normal" in="SourceGraphic" in2="BackgroundImageFix" result="shape"/>
<feColorMatrix in="SourceAlpha" type="matrix" values="0 0 0 0 0 0 0 0 0 0 0 0 0 0 0 0 0 0 127 0" result="hardAlpha"/>
<feOffset dy="1"/>
<feGaussianBlur stdDeviation="5"/>
<feComposite in2="hardAlpha" operator="arithmetic" k2="-1" k3="1"/>
<feColorMatrix type="matrix" values="0 0 0 0 0.890196 0 0 0 0 0.870588 0 0 0 0 1 0 0 0 0.15 0"/>
<feBlend mode="normal" in2="shape" result="effect1_innerShadow_378_80"/>
<feColorMatrix in="SourceAlpha" type="matrix" values="0 0 0 0 0 0 0 0 0 0 0 0 0 0 0 0 0 0 127 0" result="hardAlpha"/>
<feOffset dy="4"/>
<feGaussianBlur stdDeviation="7.5"/>
<feComposite in2="hardAlpha" operator="arithmetic" k2="-1" k3="1"/>
<feColorMatrix type="matrix" values="0 0 0 0 0.0801563 0 0 0 0 0.334748 0 0 0 0 0.3375 0 0 0 1 0"/>
<feBlend mode="normal" in2="effect1_innerShadow_378_80" result="effect2_innerShadow_378_80"/>
</filter>
<linearGradient id="paint0_linear_378_80" x1="-8.87416e-05" y1="-25.4357" x2="15.4999" y2="41.3335" gradientUnits="userSpaceOnUse">
<stop stop-color="white"/>
<stop offset="1" stop-color="white" stop-opacity="0"/>
</linearGradient>
</defs>
</svg>

<svg width="31" height="31" fill="none" xmlns="http://www.w3.org/2000/svg"><g filter="url(#filter0_ii_378_80)"><path d="M31 15.5C31 6.94 24.06 0 15.5 0 6.94 0 0 6.94 0 15.5 0 24.06 6.94 31 15.5 31 24.06 31 31 24.06 31 15.5z" fill="#223840"/><path d="M31 15.5C31 6.94 24.06 0 15.5 0 6.94 0 0 6.94 0 15.5 0 24.06 6.94 31 15.5 31 24.06 31 31 24.06 31 15.5z" fill="#fff" fill-opacity=".01"/><path d="M30.452 15.5C30.452 7.242 23.758.548 15.5.548S.548 7.242.548 15.5 7.242 30.453 15.5 30.453 30.452 23.758 30.452 15.5z" stroke="url(#paint0_linear_378_80)" stroke-width="1.095"/></g><path d="M12.75 9a.922.922 0 00-.917.929V15.5h-.916a.922.922 0 00-.917.929c0 .513.41.928.917.928h.916v.929h-.916a.922.922 0 00-.917.928c0 .514.41.929.917.929h.916v.928c0 .514.41.929.917.929a.922.922 0 00.917-.929v-.928h4.583a.922.922 0 00.917-.929.922.922 0 00-.917-.928h-4.583v-.929h3.208c2.277 0 4.125-1.871 4.125-4.178S19.152 9 16.875 9H12.75zm4.125 6.5h-3.208v-4.643h3.208c1.266 0 2.292 1.039 2.292 2.322 0 1.282-1.026 2.321-2.292 2.321z" fill="#BAE9F1"/><defs><linearGradient id="paint0_linear_378_80" x1="0" y1="-25.436" x2="15.5" y2="41.334" gradientUnits="userSpaceOnUse"><stop stop-color="#fff"/><stop offset="1" stop-color="#fff" stop-opacity="0"/></linearGradient><filter id="filter0_ii_378_80" x="0" y="0" width="31" height="35" filterUnits="userSpaceOnUse" color-interpolation-filters="sRGB"><feFlood flood-opacity="0" result="BackgroundImageFix"/><feBlend in="SourceGraphic" in2="BackgroundImageFix" result="shape"/><feColorMatrix in="SourceAlpha" values="0 0 0 0 0 0 0 0 0 0 0 0 0 0 0 0 0 0 127 0" result="hardAlpha"/><feOffset dy="1"/><feGaussianBlur stdDeviation="5"/><feComposite in2="hardAlpha" operator="arithmetic" k2="-1" k3="1"/><feColorMatrix values="0 0 0 0 0.890196 0 0 0 0 0.870588 0 0 0 0 1 0 0 0 0.15 0"/><feBlend in2="shape" result="effect1_innerShadow_378_80"/><feColorMatrix in="SourceAlpha" values="0 0 0 0 0 0 0 0 0 0 0 0 0 0 0 0 0 0 127 0" result="hardAlpha"/><feOffset dy="4"/><feGaussianBlur stdDeviation="7.5"/><feComposite in2="hardAlpha" operator="arithmetic" k2="-1" k3="1"/><feColorMatrix values="0 0 0 0 0.0801563 0 0 0 0 0.334748 0 0 0 0 0.3375 0 0 0 1 0"/><feBlend in2="effect1_innerShadow_378_80" result="effect2_innerShadow_378_80"/></filter></defs></svg>
